Adwaita++-Dark/actions/16/view-dual.svg

<svg height="16" width="16" xmlns="http://www.w3.org/2000/svg">
  <path d="m0 1v14h16v-14zm2 2h5v10h-5zm7 0h5v10h-5z" fill="#e6ddff"/>
</svg>

<svg xmlns="http://www.w3.org/2000/svg" width="16" height="16" version="1.1">
 <path style="fill:#E6DDFF" d="M 0,1 V 15 H 16 V 1 Z M 2,3 H 7 V 13 H 2 Z M 9,3 H 14 V 13 H 9 Z"/>
</svg>
